X: 23
M:4/4
L:1/8
K:G
d2|g2 ga gfed|efge agfe|d2 de dBGA|"tr"B2 A2 A2 d2|
g2 ga gfed|efge agfe|d2 ge dBAc|B2 G2 G2||

